assets/images_edit/layout/logo.svg

<svg width="298" height="185" xmlns="http://www.w3.org/2000/svg"><g fill="none"><path d="M9.6 153.8c4.7 0 6.1 2.7 6.1 2.7h.1V146h5.3v29.5h-5v-1.7c0-.8.1-1.4.1-1.4h-.1s-1.8 3.6-6.7 3.6c-5.8 0-9.4-4.5-9.4-11.1 0-6.8 4-11.1 9.6-11.1zm1 17.8c2.7 0 5.3-2 5.3-6.7 0-3.3-1.7-6.5-5.3-6.5-2.9 0-5.3 2.4-5.3 6.6 0 3.9 2.2 6.6 5.3 6.6zM26 146h5.2v4.7H26V146zm0 8.4h5.3v21.2H26v-21.2zm18.4 25.7c3.3 0 6-1.4 6-5.2v-1.3c0-.5.1-1.1.1-1.1h-.1c-1.3 1.9-3.1 2.9-5.9 2.9-6.1 0-9.5-4.9-9.5-10.8 0-5.8 3.3-10.6 9.4-10.6 4.6 0 6.3 2.7 6.3 2.7h.1v-2.2h5v20c0 7.3-5.7 10-11.2 10-2.7 0-5.5-.8-7.5-1.8l1.6-4c-.1 0 2.5 1.4 5.7 1.4zm6.2-15.4c0-4.8-2.4-6.1-5.2-6.1-3.2 0-5 2.3-5 5.9 0 3.7 1.9 6.5 5.3 6.5 2.5-.1 4.9-1.5 4.9-6.3zM61 146h5.2v4.7H61V146zm0 8.4h5.3v21.2H61v-21.2zm10.7 4.9H69v-4.2h2.9V149h5.2v6.1h4.8v4.2h-4.8v8.3c0 3.5 2.7 4 4.2 4 .6 0 1-.1 1-.1v4.6s-.6.1-1.6.1c-3 0-8.8-.9-8.8-8v-8.9h-.2zm26 3.2h.7v-.3c0-2.8-1.7-3.8-4.1-3.8-3 0-5.8 2-5.8 2l-2-3.8s3.3-2.6 8.3-2.6c5.6 0 8.8 3.1 8.8 8.5v13.3h-4.9v-1.7c0-.8.1-1.5.1-1.5h-.1s-1.6 3.8-6.5 3.8c-3.8 0-7.2-2.4-7.2-6.6.1-6.9 9.2-7.3 12.7-7.3zm-4.1 9.7c2.8 0 4.8-3 4.8-5.6v-.5h-.9c-2.7 0-7.1.4-7.1 3.3 0 1.5 1 2.8 3.2 2.8zM108 146h5.2v22.2c0 2.3.8 2.9 2.2 2.9h.8v4.6s-.8.1-1.7.1c-2.9 0-6.5-.8-6.5-6.8v-23z" fill="#EFB81D"/><path d="M120 154.5h2.8v3.1c0 .9-.1 1.7-.1 1.7h.1c1-2.8 4.3-5.3 7.6-5.3 3.9 0 5.9 1.8 6.5 5.2h.1c1.1-2.8 4.2-5.2 7.7-5.2 5.1 0 7 3 7 8.1v13.4h-2.8v-12.6c0-3.4-.7-6.3-4.5-6.3-3.2 0-5.8 2.8-6.6 5.9-.3.9-.4 1.9-.4 3v9.9h-2.8v-12.6c0-3.2-.5-6.3-4.4-6.3-3.4 0-6 3-6.9 6.2-.2.9-.3 1.8-.3 2.8v9.9h-2.8v-20.9h-.2zm48.7 8h1.2v-.5c0-4-2.2-5.4-5.2-5.4-3.5 0-5.9 2-5.9 2l-1.3-2.2s2.7-2.4 7.5-2.4c5 0 7.8 2.8 7.8 8v13.5h-2.7v-2.3c0-1 .1-1.7.1-1.7h-.1s-1.7 4.5-7 4.5c-3.5 0-7.1-2-7.1-6.2-.1-7.1 9.1-7.3 12.7-7.3zm-5.3 11.1c4 0 6.4-4.2 6.4-7.8v-.9h-1.2c-3.3 0-9.9.1-9.9 4.8.1 1.9 1.6 3.9 4.7 3.9zm14.6-18.4h2.8v3.7c0 .9-.1 1.7-.1 1.7h.1c1-3.2 3.3-5.6 6.6-5.6.6 0 1.1.1 1.1.1v2.8s-.5-.1-1-.1c-3 0-5.2 2.3-6.1 5.4-.4 1.3-.6 2.7-.6 4.1v8.8H178v-20.9zm14.1-8.2h2.8v16.3h3.3l6.3-8h3.4l-7.3 9.1v.1l8 11.8h-3.4l-7-10.5h-3.4v10.5H192V147zm28.4 7c5.8 0 8.7 4.5 8.7 9.7 0 .5-.1 1.5-.1 1.5H213c.1 5.4 3.8 8.3 8.1 8.3 3.8 0 6.4-2.5 6.4-2.5l1.3 2.2s-3 2.9-7.8 2.9c-6.3 0-11-4.5-11-11 .2-6.9 4.8-11.1 10.5-11.1zm5.9 8.8c-.2-4.4-2.8-6.4-6-6.4-3.5 0-6.5 2.2-7.2 6.4h13.2zm8.3-5.4H232V155h2.8v-6h2.8v6h5.3v2.4h-5.3v10.4c0 4.9 3.1 5.5 4.7 5.5.6 0 1-.1 1-.1v2.5s-.5.1-1.2.1c-2.4 0-7.3-.8-7.3-7.8v-10.6h-.1zM247 147h3v3.5h-3V147zm.1 8.3h2.8v21h-2.8v-21zm8.9-.8h2.8v3.1c0 .9-.1 1.7-.1 1.7h.1c.8-1.9 3.4-5.3 8.4-5.3 5.2 0 7 3 7 8.1v13.4h-2.9v-12.6c0-3.3-.5-6.2-4.5-6.2-3.6 0-6.7 2.5-7.6 5.9-.3.9-.3 1.8-.3 2.8v10h-2.8v-20.9h-.1zm31.6 27.2c4.1 0 7.3-1.9 7.3-6.6v-1.9c0-.8.1-1.5.1-1.5h-.1c-1.3 2.3-3.4 3.7-6.6 3.7-5.6 0-9.3-4.5-9.3-10.8 0-6.3 3.5-10.6 9.1-10.6 5.5 0 6.9 3.5 6.9 3.5h.1v-3h2.8V175c0 6.7-4.9 9.3-10 9.3-2.4 0-4.8-.6-6.9-1.7l1.1-2.3c-.2 0 2.4 1.4 5.5 1.4zm7.4-17.1c0-6.1-2.9-8-6.6-8-4.1 0-6.5 3-6.5 8s2.7 8.3 6.9 8.3c3.2-.1 6.2-2.1 6.2-8.3zM98.8 42H84.3v14H73.2L68 67.8h16.2l.1 52.7h14.5z" fill="#000"/><path d="M68.1 12.5H24.4v22.1H10V0h74.1v11l-46 109.2H21.8L68.1 12.5zM84 11L38.1 120.2 84 11z" fill="#EFB81D"/><path d="M274.9 108.8V65.2c0-5.8-.2-11-3.9-15.9-4.3-5.8-11.5-9.3-20.7-9.3-10.5 0-19.5 4.3-28.6 13.2V42.1h-20.5L196 53.9h11.1v54.9h-5.2l-5 11.8h37v-11.8h-12.2v-42c8.4-8.9 16.3-13.4 24.7-13.4 13 0 13.9 8.1 13.9 20.1v35.3h-12v11.8H287v-11.8h-12.1z" fill="#000"/><path d="M182.4 88.803c-2.3 6.8-7.1 12.8-14 16.2-11.8 5.9-25.7 2.6-33.8-7l48.5-24.2 11.9-6c-.6-2.1-1.5-4.1-2.4-6.1-10.1-20.2-34.7-28.5-55-18.4-18.2 9.1-26.7 30-20.8 48.9l-8.8 4.4v14.6l14.6-7.3c11.5 16.1 33.3 21.9 51.6 12.8 13.9-6.9 22.1-20.7 22.7-35.2l-14.5 7.3zm-38.9-33.7c11.7-5.9 25.7-2.6 33.8 7l-48.5 24.2c-2.9-12.3 2.9-25.4 14.7-31.2z" fill="#000"/></g></svg>

<svg width="298" height="185" viewBox="0 0 298 185" version="1.1" xmlns="http://www.w3.org/2000/svg" xmlns:xlink="http://www.w3.org/1999/xlink"><desc>7ten Digital Marketing</desc><g id="Page-1" stroke="none" stroke-width="1" fill="none" fill-rule="evenodd"><g id="7TenLogo" fill-rule="nonzero"><path d="M9.6,153.8 C14.3,153.8 15.7,156.5 15.7,156.5 L15.8,156.5 C15.8,156.5 15.8,156 15.8,155.3 L15.8,146 L21.1,146 L21.1,175.5 L16.1,175.5 L16.1,173.8 C16.1,173 16.2,172.4 16.2,172.4 L16.1,172.4 C16.1,172.4 14.3,176 9.4,176 C3.6,176 0,171.5 0,164.9 C-1.11022302e-15,158.1 4,153.8 9.6,153.8 Z M10.6,171.6 C13.3,171.6 15.9,169.6 15.9,164.9 C15.9,161.6 14.2,158.4 10.6,158.4 C7.7,158.4 5.3,160.8 5.3,165 C5.3,168.9 7.5,171.6 10.6,171.6 Z" id="Shape-Copy" fill="#EFB81D"/><path d="M26,146 L31.2,146 L31.2,150.7 L26,150.7 L26,146 L26,146 Z M26,154.4 L31.3,154.4 L31.3,175.6 L26,175.6 L26,154.4 L26,154.4 Z" id="Shape-Copy-2" fill="#EFB81D"/><path d="M44.4,180.1 C47.7,180.1 50.4,178.7 50.4,174.9 L50.4,173.6 C50.4,173.1 50.5,172.5 50.5,172.5 L50.4,172.5 C49.1,174.4 47.3,175.4 44.5,175.4 C38.4,175.4 35,170.5 35,164.6 C35,158.8 38.3,154 44.4,154 C49,154 50.7,156.7 50.7,156.7 L50.8,156.7 C50.8,156.7 50.8,156.5 50.8,156.1 L50.8,154.5 L55.8,154.5 L55.8,174.5 C55.8,181.8 50.1,184.5 44.6,184.5 C41.9,184.5 39.1,183.7 37.1,182.7 L38.7,178.7 C38.6,178.7 41.2,180.1 44.4,180.1 Z M50.6,164.7 C50.6,159.9 48.2,158.6 45.4,158.6 C42.2,158.6 40.4,160.9 40.4,164.5 C40.4,168.2 42.3,171 45.7,171 C48.2,170.9 50.6,169.5 50.6,164.7 Z" id="Shape-Copy-3" fill="#EFB81D"/><path d="M61,146 L66.2,146 L66.2,150.7 L61,150.7 L61,146 Z M61,154.4 L66.3,154.4 L66.3,175.6 L61,175.6 L61,154.4 Z" id="Shape-Copy-4" fill="#EFB81D"/><path d="M71.7,159.3 L69,159.3 L69,155.1 L71.9,155.1 L71.9,149 L77.1,149 L77.1,155.1 L81.9,155.1 L81.9,159.3 L77.1,159.3 L77.1,167.6 C77.1,171.1 79.8,171.6 81.3,171.6 C81.9,171.6 82.3,171.5 82.3,171.5 L82.3,176.1 C82.3,176.1 81.7,176.2 80.7,176.2 C77.7,176.2 71.9,175.3 71.9,168.2 L71.9,159.3 L71.7,159.3 Z" id="Shape-Copy-5" fill="#EFB81D"/><path d="M97.7,162.5 L98.4,162.5 L98.4,162.2 C98.4,159.4 96.7,158.4 94.3,158.4 C91.3,158.4 88.5,160.4 88.5,160.4 L86.5,156.6 C86.5,156.6 89.8,154 94.8,154 C100.4,154 103.6,157.1 103.6,162.5 L103.6,175.8 L98.7,175.8 L98.7,174.1 C98.7,173.3 98.8,172.6 98.8,172.6 L98.7,172.6 C98.7,172.6 97.1,176.4 92.2,176.4 C88.4,176.4 85,174 85,169.8 C85.1,162.9 94.2,162.5 97.7,162.5 Z M93.6,172.2 C96.4,172.2 98.4,169.2 98.4,166.6 L98.4,166.1 L97.5,166.1 C94.8,166.1 90.4,166.5 90.4,169.4 C90.4,170.9 91.4,172.2 93.6,172.2 Z" id="Shape-Copy-6" fill="#EFB81D"/><path d="M108,146 L113.2,146 L113.2,168.2 C113.2,170.5 114,171.1 115.4,171.1 C115.8,171.1 116.2,171.1 116.2,171.1 L116.2,175.7 C116.2,175.7 115.4,175.8 114.5,175.8 C111.6,175.8 108,175 108,169 L108,146 Z" id="Shape-Copy-7" fill="#EFB81D"/><path d="M120,154.5 L122.8,154.5 L122.8,157.6 C122.8,158.5 122.7,159.3 122.7,159.3 L122.8,159.3 C123.8,156.5 127.1,154 130.4,154 C134.3,154 136.3,155.8 136.9,159.2 L137,159.2 C138.1,156.4 141.2,154 144.7,154 C149.8,154 151.7,157 151.7,162.1 L151.7,175.5 L148.9,175.5 L148.9,162.9 C148.9,159.5 148.2,156.6 144.4,156.6 C141.2,156.6 138.6,159.4 137.8,162.5 C137.5,163.4 137.4,164.4 137.4,165.5 L137.4,175.4 L134.6,175.4 L134.6,162.8 C134.6,159.6 134.1,156.5 130.2,156.5 C126.8,156.5 124.2,159.5 123.3,162.7 C123.1,163.6 123,164.5 123,165.5 L123,175.4 L120.2,175.4 L120.2,154.5 L120,154.5 Z" id="Shape-Copy-8" fill="#000"/><path d="M168.700809,162.5 L169.900809,162.5 L169.900809,162 C169.900809,158 167.700809,156.6 164.700809,156.6 C161.200809,156.6 158.800809,158.6 158.800809,158.6 L157.500809,156.4 C157.500809,156.4 160.200809,154 165.000809,154 C170.000809,154 172.800809,156.8 172.800809,162 L172.800809,175.5 L170.100809,175.5 L170.100809,173.2 C170.100809,172.2 170.200809,171.5 170.200809,171.5 L170.100809,171.5 C170.100809,171.5 168.400809,176 163.100809,176 C159.600809,176 156.000809,174 156.000809,169.8 C155.900809,162.7 165.100809,162.5 168.700809,162.5 Z M163.400809,173.6 C167.400809,173.6 169.800809,169.4 169.800809,165.8 L169.800809,164.9 L168.600809,164.9 C165.300809,164.9 158.700809,165 158.700809,169.7 C158.800809,171.6 160.300809,173.6 163.400809,173.6 Z" id="Shape-Copy-9" fill="#000"/><path d="M178,155.2 L180.8,155.2 L180.8,158.9 C180.8,159.8 180.7,160.6 180.7,160.6 L180.8,160.6 C181.8,157.4 184.1,155 187.4,155 C188,155 188.5,155.1 188.5,155.1 L188.5,157.9 C188.5,157.9 188,157.8 187.5,157.8 C184.5,157.8 182.3,160.1 181.4,163.2 C181,164.5 180.8,165.9 180.8,167.3 L180.8,176.1 L178,176.1 L178,155.2 Z" id="Shape-Copy-10" fill="#000"/><polygon id="Shape-Copy-11" fill="#000" points="192.1 147 194.9 147 194.9 163.3 198.2 163.3 204.5 155.3 207.9 155.3 200.6 164.4 200.6 164.5 208.6 176.3 205.2 176.3 198.2 165.8 194.8 165.8 194.8 176.3 192 176.3 192 147"/><path d="M220.5,154 C226.3,154 229.2,158.5 229.2,163.7 C229.2,164.2 229.1,165.2 229.1,165.2 L213,165.2 C213.1,170.6 216.8,173.5 221.1,173.5 C224.9,173.5 227.5,171 227.5,171 L228.8,173.2 C228.8,173.2 225.8,176.1 221,176.1 C214.7,176.1 210,171.6 210,165.1 C210.2,158.2 214.8,154 220.5,154 Z M226.4,162.8 C226.2,158.4 223.6,156.4 220.4,156.4 C216.9,156.4 213.9,158.6 213.2,162.8 L226.4,162.8 Z" id="Shape-Copy-12" fill="#000"/><path d="M234.7,157.4 L232,157.4 L232,155 L234.8,155 L234.8,149 L237.6,149 L237.6,155 L242.9,155 L242.9,157.4 L237.6,157.4 L237.6,167.8 C237.6,172.7 240.7,173.3 242.3,173.3 C242.9,173.3 243.3,173.2 243.3,173.2 L243.3,175.7 C243.3,175.7 242.8,175.8 242.1,175.8 C239.7,175.8 234.8,175 234.8,168 L234.8,157.4 L234.7,157.4 Z" id="Shape-Copy-13" fill="#000"/><path d="M247,147 L250,147 L250,150.5 L247,150.5 L247,147 Z M247.1,155.3 L249.9,155.3 L249.9,176.3 L247.1,176.3 L247.1,155.3 Z" id="Shape-Copy-14" fill="#000"/><path d="M256,154.5 L258.8,154.5 L258.8,157.6 C258.8,158.5 258.7,159.3 258.7,159.3 L258.8,159.3 C259.6,157.4 262.2,154 267.2,154 C272.4,154 274.2,157 274.2,162.1 L274.2,175.5 L271.3,175.5 L271.3,162.9 C271.3,159.6 270.8,156.7 266.8,156.7 C263.2,156.7 260.1,159.2 259.2,162.6 C258.9,163.5 258.9,164.4 258.9,165.4 L258.9,175.4 L256.1,175.4 L256.1,154.5 L256,154.5 Z" id="Shape-Copy-15" fill="#000"/><path d="M287.6,181.7 C291.7,181.7 294.9,179.8 294.9,175.1 L294.9,173.2 C294.9,172.4 295,171.7 295,171.7 L294.9,171.7 C293.6,174 291.5,175.4 288.3,175.4 C282.7,175.4 279,170.9 279,164.6 C279,158.3 282.5,154 288.1,154 C293.6,154 295,157.5 295,157.5 L295.1,157.5 C295.1,157.5 295.1,157.2 295.1,156.8 L295.1,154.5 L297.9,154.5 L297.9,175 C297.9,181.7 293,184.3 287.9,184.3 C285.5,184.3 283.1,183.7 281,182.6 L282.1,180.3 C281.9,180.3 284.5,181.7 287.6,181.7 Z M295,164.6 C295,158.5 292.1,156.6 288.4,156.6 C284.3,156.6 281.9,159.6 281.9,164.6 C281.9,169.6 284.6,172.9 288.8,172.9 C292,172.8 295,170.8 295,164.6 Z" id="Shape-Copy-16" fill="#000"/><polygon id="Shape-Copy-17" fill="#000" points="98.8 42 84.3 42 84.3 56 73.2 56 68 67.8 84.2 67.8 84.3 120.5 98.8 120.5"/><path d="M68.1,12.5 L24.4,12.5 L24.4,34.6 L10,34.6 L10,0 L84.1,0 L84.1,11 L38.1,120.2 L21.8,120.2 L68.1,12.5 Z M84,11 L38.1,120.2 L84,11 Z" id="Shape-Copy-18" fill="#EFB81D"/><path d="M274.9,108.8 L274.9,68.1 C274.9,67.1 274.9,66.2 274.9,65.2 C274.9,59.4 274.7,54.2 271,49.3 C266.7,43.5 259.5,40 250.3,40 C239.8,40 230.8,44.3 221.7,53.2 L221.7,42.1 L201.2,42.1 L196,53.9 L207.1,53.9 L207.1,108.8 L201.9,108.8 L196.9,120.6 L233.9,120.6 L233.9,108.8 L221.7,108.8 L221.7,66.8 C230.1,57.9 238,53.4 246.4,53.4 C259.4,53.4 260.3,61.5 260.3,73.5 L260.3,108.8 L248.3,108.8 L248.3,120.6 L287,120.6 L287,108.8 L274.9,108.8 Z" id="Shape-Copy-19" fill="#000"/><path d="M182.4,88.8032377 C180.1,95.6032377 175.3,101.603238 168.4,105.003238 C156.6,110.903238 142.7,107.603238 134.6,98.0032377 L183.1,73.8032377 C183.1,73.8032377 183.1,73.8032377 183.1,73.8032377 L195,67.8032377 C194.4,65.7032377 193.5,63.7032377 192.6,61.7032377 C182.5,41.5032377 157.9,33.2032377 137.6,43.3032377 C119.4,52.4032377 110.9,73.3032377 116.8,92.2032377 L108,96.6032377 L108,111.203238 L122.6,103.903238 C134.1,120.003238 155.9,125.803238 174.2,116.703238 C188.1,109.803238 196.3,96.0032377 196.9,81.5032377 L182.4,88.8032377 Z M143.5,55.1032377 C155.2,49.2032377 169.2,52.5032377 177.3,62.1032377 L128.8,86.3032377 C125.9,74.0032377 131.7,60.9032377 143.5,55.1032377 Z" id="Shape-Copy-20" fill="#000"/></g></g></svg>
